img/headerServices/9.svg

<svg width="50" height="51" viewBox="0 0 50 51" fill="none" xmlns="http://www.w3.org/2000/svg">
<path d="M13.2812 44.25H11.7188V45.8125H13.2812V44.25Z" fill="#4D7B7D"/>
<path d="M29.6875 34.875H16.4062V23.1562C16.4062 22.949 16.3239 22.7503 16.1774 22.6038C16.0309 22.4573 15.8322 22.375 15.625 22.375H1.5625C1.3553 22.375 1.15659 22.4573 1.01007 22.6038C0.86356 22.7503 0.78125 22.949 0.78125 23.1562V48.1562C0.78125 48.3635 0.86356 48.5622 1.01007 48.7087C1.15659 48.8552 1.3553 48.9375 1.5625 48.9375H29.6875C29.8947 48.9375 30.0934 48.8552 30.2399 48.7087C30.3864 48.5622 30.4688 48.3635 30.4688 48.1562V35.6562C30.4688 35.449 30.3864 35.2503 30.2399 35.1038C30.0934 34.9573 29.8947 34.875 29.6875 34.875ZM21.0938 36.4375H24.2188V39.5625H21.0938V36.4375ZM7.03125 23.9375H10.1562V27.0625H7.03125V23.9375ZM2.34375 23.9375H5.46875V27.8438C5.46875 28.051 5.55106 28.2497 5.69757 28.3962C5.84409 28.5427 6.0428 28.625 6.25 28.625H10.9375C11.1447 28.625 11.3434 28.5427 11.4899 28.3962C11.6364 28.2497 11.7188 28.051 11.7188 27.8438V23.9375H14.8438V34.875H2.34375V23.9375ZM7.03125 36.4375H10.1562V39.5625H7.03125V36.4375ZM2.34375 36.4375H5.46875V40.3438C5.46875 40.551 5.55106 40.7497 5.69757 40.8962C5.84409 41.0427 6.0428 41.125 6.25 41.125H10.9375C11.1447 41.125 11.3434 41.0427 11.4899 40.8962C11.6364 40.7497 11.7188 40.551 11.7188 40.3438V36.4375H14.8438V47.375H2.34375V36.4375ZM28.9062 47.375H16.4062V36.4375H19.5312V40.3438C19.5312 40.551 19.6136 40.7497 19.7601 40.8962C19.9066 41.0427 20.1053 41.125 20.3125 41.125H25C25.2072 41.125 25.4059 41.0427 25.5524 40.8962C25.6989 40.7497 25.7812 40.551 25.7812 40.3438V36.4375H28.9062V47.375Z" fill="#4D7B7D"/>
<path d="M27.3438 44.25H25.7812V45.8125H27.3438V44.25Z" fill="#4D7B7D"/>
<path d="M13.2812 31.75H11.7188V33.3125H13.2812V31.75Z" fill="#4D7B7D"/>
<path d="M46.6917 11.4157C46.7517 11.4302 46.8132 11.4376 46.875 11.4375C47.0119 11.4374 47.1464 11.4014 47.265 11.3332C47.3837 11.2649 47.4824 11.1668 47.5514 11.0485C47.6223 10.9236 47.6585 10.7819 47.6562 10.6383V7.53128C47.6562 7.35597 47.5972 7.18576 47.4888 7.04802C47.3803 6.91029 47.2287 6.81303 47.0583 6.7719L24.402 1.30315C24.2816 1.27395 24.1559 1.27395 24.0354 1.30315L1.37919 6.7719C1.20877 6.81303 1.05714 6.91029 0.948685 7.04802C0.840229 7.18576 0.781251 7.35597 0.781236 7.53128V10.6341C0.778566 10.7977 0.825332 10.9583 0.915416 11.0948C1.00481 11.2263 1.13213 11.3274 1.28041 11.3847C1.4287 11.442 1.59093 11.4528 1.74549 11.4157L3.12499 11.0827V20.8125H4.68749V10.7056L24.2187 5.99114L43.75 10.7056V47.375H39.0625V16.9063C39.0625 16.6991 38.9802 16.5004 38.8337 16.3538C38.6871 16.2073 38.4884 16.125 38.2812 16.125H10.1562C9.94904 16.125 9.75032 16.2073 9.60381 16.3538C9.4573 16.5004 9.37499 16.6991 9.37499 16.9063V20.0313C9.37499 20.2385 9.4573 20.4372 9.60381 20.5837C9.75032 20.7302 9.94904 20.8125 10.1562 20.8125H37.5V22.375H17.9687V23.9375H37.5V25.5H17.9687V27.0625H37.5V28.625H17.9687V30.1875H37.5V47.375H32.0312V48.9375H47.6562V47.375H45.3125V11.0827L46.6917 11.4157ZM10.9375 19.25V17.6875H37.5V19.25H10.9375ZM24.2187 4.40628C24.157 4.40624 24.0954 4.41359 24.0354 4.42815L2.34374 9.66399V8.14651L24.2187 2.86624L46.0937 8.14651V9.66409L24.402 4.42815C24.342 4.41359 24.2805 4.40624 24.2187 4.40628Z" fill="#4D7B7D"/>
<path d="M25.7812 13.7812C26.4029 13.7812 26.999 13.5343 27.4385 13.0948C27.8781 12.6552 28.125 12.0591 28.125 11.4375C28.125 10.8159 27.8781 10.2198 27.4385 9.78022C26.999 9.34068 26.4029 9.09375 25.7812 9.09375H22.6562C22.0346 9.09375 21.4385 9.34068 20.999 9.78022C20.5594 10.2198 20.3125 10.8159 20.3125 11.4375C20.3125 12.0591 20.5594 12.6552 20.999 13.0948C21.4385 13.5343 22.0346 13.7812 22.6562 13.7812H25.7812ZM21.875 11.4375C21.8752 11.2304 21.9576 11.0318 22.1041 10.8853C22.2505 10.7389 22.4491 10.6565 22.6562 10.6562H25.7812C25.9885 10.6562 26.1872 10.7386 26.3337 10.8851C26.4802 11.0316 26.5625 11.2303 26.5625 11.4375C26.5625 11.6447 26.4802 11.8434 26.3337 11.9899C26.1872 12.1364 25.9885 12.2188 25.7812 12.2188H22.6562C22.4491 12.2185 22.2505 12.1361 22.1041 11.9897C21.9576 11.8432 21.8752 11.6446 21.875 11.4375Z" fill="#4D7B7D"/>
</svg>

<svg width="50" height="51" fill="none" xmlns="http://www.w3.org/2000/svg"><path d="M13.281 44.25H11.72v1.563h1.562V44.25Z" fill="#4D7B7D"/><path d="M29.688 34.875H16.405V23.156a.781.781 0 0 0-.781-.781H1.562a.781.781 0 0 0-.78.781v25a.781.781 0 0 0 .78.782h28.125a.781.781 0 0 0 .782-.782v-12.5a.781.781 0 0 0-.782-.781Zm-8.594 1.563h3.125v3.124h-3.125v-3.124ZM7.03 23.938h3.125v3.125H7.031v-3.125Zm-4.687 0h3.125v3.906a.781.781 0 0 0 .781.781h4.688a.781.781 0 0 0 .78-.781v-3.907h3.126v10.938h-12.5V23.937Zm4.687 12.5h3.125v3.124H7.031v-3.124Zm-4.687 0h3.125v3.906a.781.781 0 0 0 .781.781h4.688a.781.781 0 0 0 .78-.781v-3.907h3.126v10.938h-12.5V36.437Zm26.562 10.937h-12.5V36.437h3.125v3.907a.781.781 0 0 0 .782.781H25a.781.781 0 0 0 .781-.781v-3.907h3.125v10.938Z" fill="#4D7B7D"/><path d="M27.344 44.25H25.78v1.563h1.563V44.25Zm-14.063-12.5H11.72v1.563h1.562V31.75Z" fill="#4D7B7D"/><path d="M46.692 11.416a.775.775 0 0 0 .573-.083.784.784 0 0 0 .391-.695V7.531a.781.781 0 0 0-.598-.76L24.402 1.304a.778.778 0 0 0-.367 0L1.38 6.772a.781.781 0 0 0-.598.76v3.102a.782.782 0 0 0 .964.782l1.38-.333v9.73h1.562V10.706L24.22 5.99l19.531 4.715v36.669h-4.688V16.906a.782.782 0 0 0-.78-.781H10.155a.781.781 0 0 0-.781.781v3.125a.781.781 0 0 0 .781.782H37.5v1.562H17.969v1.563H37.5V25.5H17.969v1.563H37.5v1.562H17.969v1.563H37.5v17.187h-5.469v1.563h15.625v-1.563h-2.343V11.083l1.379.333ZM10.937 19.25v-1.563H37.5v1.563H10.937ZM24.22 4.406a.776.776 0 0 0-.184.022L2.344 9.664V8.147l21.875-5.28 21.875 5.28v1.517L24.402 4.428a.775.775 0 0 0-.183-.022Z" fill="#4D7B7D"/><path d="M25.781 13.781a2.344 2.344 0 1 0 0-4.687h-3.125a2.343 2.343 0 1 0 0 4.687h3.125Zm-3.906-2.344a.782.782 0 0 1 .781-.78h3.125a.781.781 0 0 1 0 1.562h-3.125a.782.782 0 0 1-.781-.781Z" fill="#4D7B7D"/></svg>
